!!!!SEGMENT: pl-sa--573-a-ix-53--008_lessel-franciszek--keyboard-piece.krn
!!!cenid: 18xx:609
!!!COM: Lessel, Franciszek
!!!COM-rismid: pe30004332
!!!CDT: 1780-1838/12/26
!!!CNT: Polish
!!!OTL: [Keyboard piece]
!!!PDT:
!!!AGN: Secular
!!!SMS-siglum: PL-SA
!!!SMS-shelfmark: 573/A IX 53
!!!SMS-shelfwork: 008 W
!!!SMS-variant:
!!!SMS-altvar:
!!!NIFC-rismid: 1001077514
!!!system-decoration: {(s1,s2)}
**kern	**kern
*part1	*part1
*staff2	*staff1
*Iempty	*Iempty
*I"	*I"
*clefF4	*clefG2
*k[b-e-]	*k[b-e-]
*g:	*g:
*M2/4	*M2/4
=1	=1
*	*2\right
!	!LO:TX:a:Bi:t=Jan Tarnowski:rj
2GG/	8r
.	8ddL 8b-/
.	8cc#X 8g/
.	8ccnJ 8f#X/
=2	=2
!LO:TX:a:t=P:mixed beam:problem	!
8GG/L	8bnL 8g/
8G\J	8b-XJ 8c#X/
4F#X\	4a 4d/
=3	=3
8Fn\L	8a-XL 8d/
8E-\J	8g 8e-X/
8BB-/L	8f 8d/
8C/J	8e-J 8c/
=4	=4
!LO:TX:a:t=P:mixed beam:problem	!
8D\L	8dL 8B-/
8DD/J	8f#XJ 8A/
4GG;>/	4g 4G;>/
=5||	=5||
8GG/	8r
4G\	(>16g\LL
.	16a\JJ)
.	8b-\L
8E-\	8cc\J
=6	=6
*	*^
8D\L	4.dd/	2f#X\
16F#X\L	.	.
16A\JJ	.	.
8d\L	.	.
8c\J	8ee-/	.
*	*v	*v
=7	=7
8B-\L	8dd\L
8F#X\	16dd\L
.	16cc\JJ
8G\	8b-\L
8B-\J	8dd\J
=8	=8
8G\L	8a\
8A\J	4cc\
8G\L	.
8c\J	16b-\LL
.	16a\JJ
=9	=9
4F\	8gL 8B-/
.	8gJ 8B-/
8A\L	8f#XL 8c/
8c\J	8f#J 8c/
=10	=10
!LO:SIC:s=4C#:v	!
4AA#X/	8b-\L
.	(>16a\L
.	16g\JJ)
!LO:SIC:s=8D:v	!
8BB-/	8f#X/L
8r	8dd/J
!!LO:LB:g=original
=11	=11
*clefG2	*
8r	8g\L
8f/L	16a\L
.	16bn\JJ
8en/	8cc\L
8e-X/J	8cc#X\J
=12	=12
8d/L	8ff#XL 8dd\
8d#X/J	16cccL 16ee-X\
.	16gg\JJ
8d#/	8ff#L 8dd\
.	8qccc#X/
8r	8ddd\J
*clefF4	*
=13	=13
8GG/	8r
4G\	16g\LL
.	16a\JJ
.	8b-\L
8Fn\	8ccJ 8a\
=14	=14
8BB-\L	4.dd 4.b-\
16D\L	.
16F\JJ	.
8B-\L	.
8E-\J	8ee- 8cc\
=15	=15
8F\L	8dd\L
8F#X\	16dd\L
.	16cc\JJ
8G\	8b-\L
8B-\J	8dd\J
=16	=16
8G\L	8a\
8A\	4cc\
8G\	.
8c\J	(<16b-/LL
.	16a/JJ)
=17	=17
4G\	8g/L
.	8g/
8A\L	8f#X/
8B-\J	8g/J
=18	=18
4C#X/	8b-\L
.	16a\L
.	16g\JJ
!LO:TX:a:t=P:mixed beam:problem	!
8D\L	8f#X/L
8DD/J	8d/J
=19	=19
8GG\L	8.B-</L
16D\L	.
16C\JJ	16A</Jk
8BB-\L	8G</L
8AA\J	8F#X</J
=20	=20
8GG\L	8G</L
16FF\L	16Fn</L
16EE-\JJ	16E-</JJ
!	!LO:TX:a:t=P:mixed beam:problem
8DD\	8D</L
8ryy	16d\L
.	16c#X\JJ
=21	=21
*	*^
8r	8re	2d\
8F#X\L	8a/L	.
8G\	8b-/	.
8B-\J	8g/J	.
!!LO:LB:g=original
*	*v	*v
=22	=22
8A\L	8.f#XL 8.d/
8c\	.
.	16a/Jk
8B-\	4g/
8A\J	.
=23	=23
8G\L	8dd\L
8BBn\	8dd\
8C\	8ee-\
8E-\J	8cc\J
=24	=24
8G\L	8.bn\L
8F\J	.
.	16dd\Jk
8E-\L	4cc\
16D\L	.
16C\JJ	.
=25	=25
*	*^
8c\L	8r	8ryy
8r	8ee-/L	8cc\
8B-\	8dd/	4ryy
8A\J	8cc#X/J	.
*	*v	*v
=26	=26
8D\L	8f#X/L
!LO:N:vis=8	!
16En\L	16g/L
!LO:N:vis=8	!
16F#X\JJ	16a/JJ
4G\	8b-/L
.	16ccL 16a/
.	16b-JJ 16g/
=27	=27
4C/	8ccL 8a/
.	8cc 8a/
!LO:TX:a:t=P:mixed beam:problem	!
8D\L	8b- 8g/
8DD/J	8aJ 8f#X/
=28	=28
16GG/LL	4.g/
16FF#X/	.
16GG/	.
16FF#/JJ	.
4GG/	.
.	8B-/
=29	=29
4GG/	8e-L 8c/
.	8g 8e-/
4GG/	8f 8d/
.	8e-J 8c/
=30	=30
16FF/LL	4d 4Bn/
16EE-/	.
16EE-/	.
16EE-/JJ	.
4FF;>/	4r;>
==	==
*-	*-
!!title: @{OTL};
!!!RDF**kern: > = above
!!!RDF**kern: < = below
!!!EED: Wojciech Jakubiak-Danek
!!!EST: 2020-12-10
!!!URL-scan: http://bc.bdsandomierz.pl/dlibra/publication/1379/edition/1347/content
!!!ONB-nifc: Str. 14. Uwaga: tytuł w źródle: Jan Tarnowski
!!!ENC: Marcin Jachim
!!!END: 2020-06-19
